src/icons/solid/symbols/distribution.svg

<svg width="24" height="24" viewBox="0 0 24 24" fill="none" xmlns="http://www.w3.org/2000/svg">
<g clip-path="url(#clip0_6020_1023)">
<path d="M20.9998 3.96023C21.0209 2.34023 19.6592 1.02023 17.9493 1.00023C16.2393 0.980229 14.846 2.27023 14.8249 3.89023C14.8038 5.17023 15.6693 6.31023 16.9465 6.71023V6.89023C16.9465 9.62023 14.6138 11.8302 11.7322 11.8302H8.05893V6.74023C9.68445 6.23023 10.5605 4.58023 10.0328 3.04023C9.49446 1.50023 7.75283 0.670229 6.12731 1.17023C4.50179 1.68023 3.6257 3.33023 4.15347 4.87023C4.45957 5.75023 5.18789 6.45023 6.12731 6.74023V17.2802C4.50179 17.7902 3.6257 19.4402 4.15347 20.9802C4.69179 22.5202 6.43342 23.3502 8.05893 22.8502C9.68445 22.3402 10.5605 20.6902 10.0328 19.1502C9.72667 18.2702 8.99836 17.5702 8.05893 17.2802V13.6202H11.7322C15.6799 13.6202 18.8781 10.5902 18.8781 6.85023V6.74023C20.1448 6.34023 20.9998 5.22023 20.9998 3.96023Z" fill="#3C3B44"/>
</g>
<defs>
<clipPath id="clip0_6020_1023">
<rect width="24" height="24" fill="white"/>
</clipPath>
</defs>
</svg>

<svg xmlns="http://www.w3.org/2000/svg" width="24" height="24" fill="none" viewBox="0 0 24 24"><g clip-path="url(#a)"><path fill="currentColor" d="M21 3.96c.02-1.62-1.34-2.94-3.05-2.96s-3.104 1.27-3.125 2.89c-.021 1.28.844 2.42 2.122 2.82v.18c0 2.73-2.333 4.94-5.215 4.94H8.06V6.74c1.625-.51 2.502-2.16 1.974-3.7C9.494 1.5 7.753.67 6.127 1.17c-1.625.51-2.501 2.16-1.974 3.7a3.02 3.02 0 0 0 1.974 1.87v10.54c-1.625.51-2.501 2.16-1.974 3.7.539 1.54 2.28 2.37 3.906 1.87 1.625-.51 2.502-2.16 1.974-3.7-.306-.88-1.035-1.58-1.974-1.87v-3.66h3.673c3.948 0 7.146-3.03 7.146-6.77v-.11C20.145 6.34 21 5.22 21 3.96"/></g><defs><clipPath id="a"><path fill="currentColor" d="M0 0h24v24H0z"/></clipPath></defs></svg>
